X:1
T:Par trop souffrir
T:Par trop souffrir
T:Thomas Crecquillon
C:Thomas Crecquillon
%%score [ 1 2 3 4 ]
L:1/8
Q:1/4=120
M:2/2
K:F
V:1 treble nm="Soprano" snm="S"
V:2 treble nm="Alto" snm="A"
V:3 treble-8 nm="Tenor" snm="T"
V:4 bass nm="Bass" snm="B"
V:1
 z4 F4- | F8 | B4 B4- | B2 AG A2 c2 | d2 f2 c2 e2 | d4 c4 | z4 z2 F2 | G2 B2 F2 A2 | G4 F3 G | %9
w: Par|_|trop souf-|* * * frir de|for- tu- n'en- ne-|my- e,|de|for- tu- n'en- ne-|my- * *|
 A2 G4 F2- | F2 E2 F2 A2 | B2 G2 A4 | z4 z2 A2 | B2 G2 A2 c2 | d2 c2 c2 c2 | f3 e d2 c2 | %16
w: |* * e, vis|en re- gretz,|vis|en re- gretz, vis|en re- gretz et|me _ _ faul-|
 BA AG/F/ G4 | A8 | z2 A2 B2 A2 | G2 F2 E2 D2 | E4 z2 c2 | d2 c2 B2 A2 | B6 AG | A2 A2 B4 | G8 | %25
w: dra _ _ _ _ mou-|rir,|et me faul-|dra _ _ mou-|rir, et|me faul- dra mou-|rir, _ _|_ ou nay|se-|
 F2 A2 B4- | B2 A2 G4 | F4 E4 | z2 c4 c2 |: A4 G4- | G2 A4 A2 | F4 G2 G2 | A2 c2 B2 A2 | %33
w: cours ou grief-|* ve- ment|lan- gueur|le de-|meu- rant,|_ le de-|meu- rant de|ma do- len- te|
 G2 F2 E2 D2 | C2 G2 A2 c2 | B2 A2 G4 | A2 F2 G2 B2 | A2 G2 F2 A2 | G2 F4 E2 | D2 F4 E2 | %40
w: vy- * * *|e, de ma do-|len- ta vy-|e, de ma do-|len- te vy- *|||
[M:2/4] F4 |1[M:2/2] z2 c4 c2 :|2 G2 F4 E2 || D2 F4 E2 | F8- | F8- | F8 |] %47
w: e,|le de-|(vy)- * *||e.|_||
V:2
 C4 C4 | D4 C2 F2 | F4 G4 | F8 | F6 G2 | B2 F2 A4 | G2 F3 E C2 | D2 B,C DE F2- | F2 E2 F2 C2 | %9
w: Par trop|souf- frir,- par|trop souf-|frir|de for-|tu- n'en- ne-|my- * * *|||
 _E2 B,2 D4 | C4 A,2 F2 | D2 E2 F4 | z4 z2 F2 | D2 E2 FG A2- | AG G2 A4- | A2 F2 B2 A2 | G2 F4 E2 | %17
w: |* e, vis|en re- gretz,|vis|en _ _ _ _|_ _ re- gretz|_ et me faul-|dra _ _|
 D2 C2 F4 | z4 z2 C2 | _E2 D2 C2 B,2 | CB, A,G, A,4 | F4 D2 F2 | G4 F4 | F2 F2 F4 | _E8 | D4 F4 | %26
w: _ mou- rir,|et|me faul- dra _|mou- * * * rir,|sy- nay se-|cours ou|grief- ve- ment|lan-|gueur, ou|
 F3 E D2 C2- | CA, B,2 C3 B,/A,/ | G,2 A,2 F,2 F2- |: F2 F2 D4 | E2 F3 E C2 | D2 D2 E2 G2 | %32
w: grief- ve- ment lan-||* * gueur, le|_ de- meu-|rant de ma do-|len- te vy- *|
 F2 E2 D2 C2- | CA, B,2 CF, F2- | F2 E2 F2 C2 | D2 F2 E2 D2- | DC C4 B,2 | C2 _E2 D2 C2 | %38
w: ||* * e, de|ma do- len- te|_ _ vy- *||
 _E2 D3 C C2- | C2 B,2 C4 |[M:2/4] C3 B, |1[M:2/2] A,G, A,2 F,2 F2 :|2"^b" E2 D2 C4 || %43
w: |||* * * e, le|(vy)- * *|
 A,2 D2 C2 B,2 | C4 D4 | C8- | C8 |] %47
w: ||e.|_|
V:3
 z2 c2 A2 F2 | B3 A/G/ A2 c2 | d6 _e2 | d2 c4 BA | B4 z2 c2 | d4 f2 c2 | e2 d2 c3 B/A/ | %7
w: Par trop souf-|frir, _ _ _ par|trop souf-||frir de|for- tu- n'en-|ne my- * * *|
 B2 d3 c A2 | B2 c2 FG AB | c2 G2 A2 B2 | G4 F4 | z4 z2 A2 | B2 G2 A4 | z2 c4 BA | B2 c2 F4- | %15
w: e, de for- tu-|n'en- ne- my- * * *||* e,|vis|en re- gretz,|vis en _|_ re- gretz|
 F4 z4 | z4 z2 c2 | f2 e2 dc f2- | fe c2 d2 z A | B2 A2 G2 F2 | G2 c2 d2 c2 | B2 A2 B2 c2 | %22
w: _|et|me faulgra _ _ mou-|* * * rir, et|me faul- dra mou-|rir, et me faul-|dra mou- rir sy|
 _e4 d4 | c2 c2 d4 | B4 c4 | A4 d4- | d2 c2 B2 G2 | A2 F2 G2 c2- | c2 c2 A3 B |: cd c4 B2 | %30
w: nay se-|cours, sy nay|se- cours|ou grief-|* ve- ment lan-|* gueur le de-|* meu- * *|* * rant, le|
 c2 c2 c2 A2- | A2 F2 c3 B | A2 G2 F4 | z2 F2 G2 B2 | A2 G2 F2 A2 | B2 c4 B2 | c4 d4 | c4 z2 F2 | %38
w: de- meu- rant, le|_ _ de- *|* meu- rant|de ma do-|len- te vy- *|||e, de|
 G2 B2 A2 G2 | F4 G4 |[M:2/4] F2 c2- |1[M:2/2] c2 c2 A3 B :|2 G2 B2 A2 G2 || F3 G A2 B2- | %44
w: ma do- len- te|vy- *|e, le|_ de- meu- *|ma do- len- te|vy- * * *|
 B2 A2 B4- | B2 AG A4- | A8 |] %47
w: |* * * e.|_|
V:4
 z4 F,4 | D,2 B,,2 F,4 | z2 B,2 G,2 _E,2 | F,8 | z8 | z4 F,4 | G,2 B,2 F,2 A,2 | G,4 D,4 | %8
w: Par|trop souf- frir,|par trop souf-|frir||de|for- tu- n'en- ne|my- e,|
 z2 C,2 D,2 F,2 | C,2 E,2 D,2 B,,2 | C,4 F,4 | z4 z2 F,2 | D,2 E,2 F,2 F,2 | G,2 C,2 F,4 | z8 | %15
w: de for- tu-|n'en- ne my- *|* e,|vis|en re- gretz, vis|en re- gretz||
 z8 | z8 | z4 z2 F,2 | B,2 A,2 G,2 F,2 | _E,2 F,2 C,2 D,2 | C,4 F,4 | z2 F,2 G,2 F,2 | %22
w: ||et|me faul- dra _|_ _ _ _|mou- rir,-|et me faul|
 _E,4 B,,C, D,E, | F,4 z2 B,,2 | _E,4 C,4 | D,4 B,,4- | B,,2 F,2 G,2 E,2 | D,2 D,2 C,4- | %28
w: dra mou- * * *|rir sy|nay se-|cours- _|_ ou grief- ve-|ment lan- gueur,|
 C,4 z2 F,2- |: F,2 F,2 G,4 | C,2 F,4 F,2 | D,4 C,4 | z2 C,2 D,2 F,2 | E,2 D,2 C,2 B,,2 | %34
w: _ le|_ de- meu-|rant, le de-|meu- rant|de ma do-|len- te vy- *|
"^-natural" C,4 F,4 | z2 F,2 G,2 B,2 | A,2 A,2 G,4 | C,2 C,2 D,2 F,2 | _E,2 B,,2 C,4 | D,4 C,4 | %40
w: * e,|de ma do-|len- te vy-|e, de ma do-|len- te vy-||
[M:2/4] F,4- |1[M:2/2] F,4 z2 F,2- :|2 _E,2 B,,2 C,4 || D,3 E, F,2 G,2 | F,3 E, D,2 B,,2 | F,8- | %46
w: e,|_ le|len- te vy-|||e.|
 F,8 |] %47
w: _|

